!!!COM: Thomas, Leton Felix
!!!CDT: b.1926
!!!OTL: National Anthem, Saint Lucia
!!!ENC: Davis, Matthew J.
!!Vocal Line Only
**kern
*clefG2
*k[b-e-]
*B-:
*M4/4
=1-
4.dd
8a
4cc
4b-
=2
4.cc
8b-
4a
4g
=3
4f
4g
4a
4b-
=4
4cc
4g
2cc
=5
4.b-
8a
4a
4g
=6
4.cc
8b-
4b-
4a
=7
4dd
4a
4b-
8a
8g
=8
4a
4g
2f
=9
4.f
8g
4a-
4a-
=10
4g
4an
4b-
4cc
=11
4dd
8a
8b-
4.cc
8cc#
=12
4dd
4ccn
2b-
==|!
*-
